X: 6946
T: Chester Castle
R: hornpipe
M: 4/4
K: Dmajor
|:FG|A3B AFDF|BcdB AFDF|GABG FGAF|E2 E3/2E/ E3A|
FDFA d3f|edcB A2 Bc|d2 cB c2 B2|A2 A3/2A/ A2:|
|:cd|e3f ecAc|fgaf ecAc|d2 fd c2 ec|B2 B3/2B/ B2 AB/c/|
d3B AFDF|GABc d2 cB|BAGF AGFE|D2 D3/2D/ D2:|

